svgs/sharp-thin/file-jpg.svg

<svg xmlns="http://www.w3.org/2000/svg" viewBox="0 0 512 512"><!--! Font Awesome Pro 6.6.0 by @fontawesome - https://fontawesome.com License - https://fontawesome.com/license (Commercial License) Copyright 2024 Fonticons, Inc. --><path d="M16 496l96 0 0 16-96 0L0 512l0-16L0 16 0 0 16 0 224 0 384 160l0 144-16 0 0-128-152 0-8 0 0-8 0-152L16 16l0 480zM361.4 160L224 22.6 224 160l137.4 0zM208 512c-22.1 0-40-17.9-40-40l0-16 0-8 16 0 0 8 0 16c0 13.3 10.7 24 24 24s24-10.7 24-24l0-96 0-8 16 0 0 8 0 96c0 22.1-17.9 40-40 40zM456 368l16 0c17.7 0 32 14.3 32 32l0 16-16 0 0-16c0-8.8-7.2-16-16-16l-16 0c-8.8 0-16 7.2-16 16l0 80c0 8.8 7.2 16 16 16l16 0c8.8 0 16-7.2 16-16l0-16-8 0-8 0 0-16 8 0 16 0 8 0 0 8 0 24c0 17.7-14.3 32-32 32l-16 0c-17.7 0-32-14.3-32-32l0-80c0-17.7 14.3-32 32-32zm-160 0l8 0 32 0c26.5 0 48 21.5 48 48s-21.5 48-48 48l-24 0 0 40 0 8-16 0 0-8 0-48 0-80 0-8zm16 80l24 0c17.7 0 32-14.3 32-32s-14.3-32-32-32l-24 0 0 64z"/></svg>

<svg xmlns="http://www.w3.org/2000/svg" viewBox="0 0 512 512"><!--! Font Awesome Pro 6.5.2 by @fontawesome - https://fontawesome.com License - https://fontawesome.com/license (Commercial License) Copyright 2024 Fonticons, Inc. --><path d="M16 496h96v16H16 0V496 16 0H16 224L384 160V304H368V176H216h-8v-8V16H16V496zM361.4 160L224 22.6V160H361.4zM208 512c-22.1 0-40-17.9-40-40V456v-8h16v8 16c0 13.3 10.7 24 24 24s24-10.7 24-24V376v-8h16v8 96c0 22.1-17.9 40-40 40zM456 368h16c17.7 0 32 14.3 32 32v16H488V400c0-8.8-7.2-16-16-16H456c-8.8 0-16 7.2-16 16v80c0 8.8 7.2 16 16 16h16c8.8 0 16-7.2 16-16V464h-8-8V448h8 16 8v8 24c0 17.7-14.3 32-32 32H456c-17.7 0-32-14.3-32-32V400c0-17.7 14.3-32 32-32zm-160 0h8 32c26.5 0 48 21.5 48 48s-21.5 48-48 48H312v40 8H296v-8V456 376v-8zm16 80h24c17.7 0 32-14.3 32-32s-14.3-32-32-32H312v64z"/></svg>
